X:1
T:Am I a Soldier of the Cross
T:Text: Isaac Watts (1674-1748) Tune: Thomas A. Arne (1710-1778)
T:CM ARLINGTON www.hymnary.org/text/am_i_a_soldier_of_the_cross
T:Am I a Soldier of the Cross
T:This hymn is in the public domain.  You may freely use this score for personal and congregational worship.  If you reproduce the score, please credit Hymnary.org as the source. 
T:This hymn is in the public domain.  You may freely use this score for personal and congregational worship.  If you reproduce the score, please credit Hymnary.org as the source. 
Z:This hymn is in the public domain.  You may freely use this score for personal and congregational worship.  If you reproduce the score, please credit Hymnary.org as the source.
%%score ( 1 2 ) ( 3 4 )
L:1/8
M:3/2
K:F
V:1 treble nm="Piano" snm="Pno."
V:2 treble 
V:3 bass nm="Piano" snm="Pno."
V:4 bass 
V:1
 F4 | [FA]3 [FA] [FA]4 [EG]4 | [DF]3 [DF] [DF]4 [EG]4 | [FA]2 [Fc]2 [EB]4 [FA]4 | (([FA]4 [EG]4)) | %5
w: 3~Are|there no foes for|me to face? Must|I not stem the|flood? _|
w: 1~Am|I a sol- dier|of the cross, a|fol- lower of the|Lamb, _|
w: 2~Must|I be car- ried|to the skies on|flo- wery beds of|ease, _|
 [EB]4 | [FA]3 [FA] [FA]4 [Fd]4 | [Fc]3 [Fc] [Fc]4 [CF]4 | [DG]2 [GB]2 [FA]4 [EG]4 | [FF]8 |] %10
w: Is|this vile world a|friend to grace, to|help me on to|God?|
w: and|shall I fear to|own his cause, or|blush to speak his|name?|
w: while|o- thers fought to|win the prize, and|sailed through bloo- dy|seas?|
V:2
 F4 | x12 | x12 | x12 | x8 | x4 | x12 | x12 | x12 | x8 |] %10
V:3
 [F,A,]4 | [F,C]3 [F,C] [F,C]4 [C,B,]4 | [D,A,]3 [D,A,] [D,A,]4 [C,C]4 | %3
 [F,C]2 A,2 [G,B,]4 [F,C]4 | [C,C]8 | [C,C]4 | [F,C]3 [F,C] [F,C]4 [F,B,]4 | %7
 [F,A,]3 [F,A,] [F,A,]4 [A,,C]4 | [B,,B,]2 [G,,D]2 [C,C]4 [C,B,]4 | [F,A,]8 |] %10
V:4
 x4 | x12 | x12 | x2 A,2 x4 x4 | x8 | x4 | x12 | x12 | x12 | x8 |] %10

